www/images/loupe.svg

<?xml version="1.0" encoding="UTF-8" standalone="no"?>
<svg
   xmlns:dc="http://purl.org/dc/elements/1.1/"
   xmlns:cc="http://creativecommons.org/ns#"
   xmlns:rdf="http://www.w3.org/1999/02/22-rdf-syntax-ns#"
   xmlns:svg="http://www.w3.org/2000/svg"
   xmlns="http://www.w3.org/2000/svg"
   xmlns:sodipodi="http://sodipodi.sourceforge.net/DTD/sodipodi-0.dtd"
   xmlns:inkscape="http://www.inkscape.org/namespaces/inkscape"
   fill-opacity="1"
   color-rendering="auto"
   color-interpolation="auto"
   stroke="black"
   text-rendering="auto"
   stroke-linecap="square"
   stroke-miterlimit="10"
   stroke-opacity="1"
   shape-rendering="auto"
   fill="black"
   stroke-dasharray="none"
   font-weight="normal"
   stroke-width="1"
   font-family="'Dialog'"
   font-style="normal"
   stroke-linejoin="miter"
   font-size="12"
   stroke-dashoffset="0"
   image-rendering="auto"
   id="svg2"
   version="1.1"
   inkscape:version="0.48.5 r10040"
   width="100%"
   height="100%"
   sodipodi:docname="loupe.svg">
  <metadata
     id="metadata13">
    <rdf:RDF>
      <cc:Work
         rdf:about="">
        <dc:format>image/svg+xml</dc:format>
        <dc:type
           rdf:resource="http://purl.org/dc/dcmitype/StillImage" />
      </cc:Work>
    </rdf:RDF>
  </metadata>
  <sodipodi:namedview
     pagecolor="#ffffff"
     bordercolor="#666666"
     borderopacity="1"
     objecttolerance="10"
     gridtolerance="10"
     guidetolerance="10"
     inkscape:pageopacity="0"
     inkscape:pageshadow="2"
     inkscape:window-width="1331"
     inkscape:window-height="750"
     id="namedview11"
     showgrid="false"
     inkscape:zoom="1.2685914"
     inkscape:cx="337.4294"
     inkscape:cy="839.75536"
     inkscape:window-x="35"
     inkscape:window-y="18"
     inkscape:window-maximized="1"
     inkscape:current-layer="svg2" />
  <!--Unicode Character 'LEFT-POINTING MAGNIFYING GLASS' (U+1F50D)-->
  <defs
     id="genericDefs" />
  <g
     id="g5"
     transform="translate(-11.459311,-72.306207)">
    <g
       id="g7">
      <path
         d="m 279.8438,309.7969 q 0,3.375 -5.3438,9 -4.0781,3.7969 -8.1562,7.7343 -4.0782,4.3594 -12.6563,12.5157 -1.4063,1.125 -3.9375,1.125 -2.8125,0 -11.6719,-9.2813 -13.6406,-13.5 -40.6406,-40.5 -5.3437,-4.9218 -15.0469,-15.1875 -0.9844,-1.125 -0.9844,-3.6562 0,-3.7969 6.0469,-8.7188 l -10.2656,-10.2656 q -30.7969,22.6406 -63.9844,22.6406 -41.0625,0 -71.3672,-30.4453 -30.3047,-30.4453 -30.3047,-71.5078 0,-40.9219 30.5157,-71.2266 30.5156,-30.3046 71.4375,-30.3046 41.2031,0 71.5781,30.375 30.375,30.375 30.375,71.5781 0,32.2031 -22.2187,63 l 9.8437,9.8437 q 1.8281,-1.5468 3.7266,-3.164 1.8984,-1.6172 4.4297,-1.6172 3.6562,0 11.9531,8.2968 12.5156,12.375 37.5469,37.2657 6.3281,6.0469 18,18.4219 1.125,1.4062 1.125,4.0781 z m -79.3126,-60.4688 q -5.2031,-5.2031 -10.125,-9.4219 -2.9531,2.6719 -5.0624,5.4844 3.2343,3.5156 10.2656,9.8438 l 4.9218,-5.9063 z m 4.3594,-78.1875 q 0,-37.2656 -26.8594,-64.1953 -26.8593,-26.9297 -64.125,-26.9297 -37.4062,0 -64.0546,26.8594 -26.6485,26.8594 -26.6485,64.2656 0,37.6875 26.5078,64.125 26.5079,26.4375 64.1953,26.4375 37.4063,0 64.1954,-26.5781 26.789,-26.5781 26.789,-63.9844 z m -12.6562,85.9219 -9.7032,-9.2813 q -0.9843,0.7032 -2.3906,2.3907 l 9.7032,9.8437 q 1.8281,-1.8281 2.3906,-2.9531 z m 61.0312,70.1719 -56.6718,-56.5313 18.4218,-18.4219 q -2.5312,-1.8281 -3.7968,-1.8281 -1.5469,0 -11.1094,9.211 -9.5625,9.2109 -9.5625,12.0234 0,1.6875 2.25,3.9375 52.5937,54 56.3906,54 2.6719,0 4.0781,-2.3906 z m -60.0468,-156.375 q 0,32.9062 -22.9219,55.8281 -22.9219,22.9219 -55.9688,23.2031 l -3.9375,0 q -23.9062,0.2813 -45.2812,-16.7344 -21.375,-17.0156 -27.8438,-40.3593 -2.5312,-9.1407 -2.5312,-15.1875 l 0,-2.5313 q 5.625,25.7344 25.1718,41.836 19.5469,16.1015 45.7032,16.1015 29.3906,0 50.2031,-20.8125 Q 176.625,191.3906 176.625,162 q 0,-24.8906 -15.1875,-44.2969 -15.0469,-18.9843 -39.2344,-25.7343 l 1.4063,0 q 9,0 24.1875,6.75 21.2343,9.4218 33.4687,29.25 11.9532,19.2656 11.9532,42.8906 z M 99.1406,135.8438 q 0,10.6874 -7.7344,18.4218 Q 83.6719,162 72.9844,162 q -8.7188,0 -15.75,-5.4141 -7.0313,-5.414 -9.4219,-13.8515 7.7344,11.8125 20.5313,11.8125 9.4218,0 16.3828,-6.8203 6.9609,-6.8204 6.9609,-16.1016 0,-14.625 -12.2344,-20.5312 8.4375,2.6718 14.0625,9.4218 5.625,6.75 5.625,15.3282 z"
         id="path9"
         inkscape:connector-curvature="0"
         style="stroke:none" />
    </g>
  </g>
</svg>

<?xml version="1.0"?>

<!DOCTYPE svg PUBLIC '-//W3C//DTD SVG 1.0//EN' 'http://www.w3.org/TR/2001/REC-SVG-20010904/DTD/svg10.dtd'>
<svg fill-opacity="1" xmlns:xlink="http://www.w3.org/1999/xlink" color-rendering="auto" color-interpolation="auto" stroke="black" text-rendering="auto" stroke-linecap="square" stroke-miterlimit="10" stroke-opacity="1" shape-rendering="auto" fill="black" stroke-dasharray="none" font-weight="normal" stroke-width="1" xmlns="http://www.w3.org/2000/svg" font-family="&apos;Dialog&apos;" font-style="normal" stroke-linejoin="miter" font-size="12" stroke-dashoffset="0" image-rendering="auto">
  <!--Unicode Character 'LEFT-POINTING MAGNIFYING GLASS' (U+1F50D)-->
  <defs id="genericDefs" />
  <g>
    <g>
      <path d="M279.8438 309.7969 Q279.8438 313.1719 274.5 318.7969 Q270.4219 322.5938 266.3438 326.5312 Q262.2656 330.8906 253.6875 339.0469 Q252.2812 340.1719 249.75 340.1719 Q246.9375 340.1719 238.0781 330.8906 Q224.4375 317.3906 197.4375 290.3906 Q192.0938 285.4688 182.3906 275.2031 Q181.4062 274.0781 181.4062 271.5469 Q181.4062 267.75 187.4531 262.8281 L177.1875 252.5625 Q146.3906 275.2031 113.2031 275.2031 Q72.1406 275.2031 41.8359 244.7578 Q11.5312 214.3125 11.5312 173.25 Q11.5312 132.3281 42.0469 102.0234 Q72.5625 71.7188 113.4844 71.7188 Q154.6875 71.7188 185.0625 102.0938 Q215.4375 132.4688 215.4375 173.6719 Q215.4375 205.875 193.2188 236.6719 L203.0625 246.5156 Q204.8906 244.9688 206.7891 243.3516 Q208.6875 241.7344 211.2188 241.7344 Q214.875 241.7344 223.1719 250.0312 Q235.6875 262.4062 260.7188 287.2969 Q267.0469 293.3438 278.7188 305.7188 Q279.8438 307.125 279.8438 309.7969 ZM200.5312 249.3281 Q195.3281 244.125 190.4062 239.9062 Q187.4531 242.5781 185.3438 245.3906 Q188.5781 248.9062 195.6094 255.2344 L200.5312 249.3281 ZM204.8906 171.1406 Q204.8906 133.875 178.0312 106.9453 Q151.1719 80.0156 113.9062 80.0156 Q76.5 80.0156 49.8516 106.875 Q23.2031 133.7344 23.2031 171.1406 Q23.2031 208.8281 49.7109 235.2656 Q76.2188 261.7031 113.9062 261.7031 Q151.3125 261.7031 178.1016 235.125 Q204.8906 208.5469 204.8906 171.1406 ZM192.2344 257.0625 L182.5312 247.7812 Q181.5469 248.4844 180.1406 250.1719 L189.8438 260.0156 Q191.6719 258.1875 192.2344 257.0625 ZM253.2656 327.2344 L196.5938 270.7031 L215.0156 252.2812 Q212.4844 250.4531 211.2188 250.4531 Q209.6719 250.4531 200.1094 259.6641 Q190.5469 268.875 190.5469 271.6875 Q190.5469 273.375 192.7969 275.625 Q245.3906 329.625 249.1875 329.625 Q251.8594 329.625 253.2656 327.2344 ZM193.2188 170.8594 Q193.2188 203.7656 170.2969 226.6875 Q147.375 249.6094 114.3281 249.8906 L110.3906 249.8906 Q86.4844 250.1719 65.1094 233.1562 Q43.7344 216.1406 37.2656 192.7969 Q34.7344 183.6562 34.7344 177.6094 L34.7344 175.0781 Q40.3594 200.8125 59.9062 216.9141 Q79.4531 233.0156 105.6094 233.0156 Q135 233.0156 155.8125 212.2031 Q176.625 191.3906 176.625 162 Q176.625 137.1094 161.4375 117.7031 Q146.3906 98.7188 122.2031 91.9688 L123.6094 91.9688 Q132.6094 91.9688 147.7969 98.7188 Q169.0312 108.1406 181.2656 127.9688 Q193.2188 147.2344 193.2188 170.8594 ZM99.1406 135.8438 Q99.1406 146.5312 91.4062 154.2656 Q83.6719 162 72.9844 162 Q64.2656 162 57.2344 156.5859 Q50.2031 151.1719 47.8125 142.7344 Q55.5469 154.5469 68.3438 154.5469 Q77.7656 154.5469 84.7266 147.7266 Q91.6875 140.9062 91.6875 131.625 Q91.6875 117 79.4531 111.0938 Q87.8906 113.7656 93.5156 120.5156 Q99.1406 127.2656 99.1406 135.8438 Z" stroke="none" />
    </g>
  </g>
</svg>
